X:379
%%etbk:tnset id:107,pos:2,rep:3x,ant:
%%etbk:wsite http://www.thesession.org/tunes/display/2743
%%etbk:skill ?
%%etbk:pldat 2013-10-18T16:10,2013-10-16T15:39,2013-10-13T15:54,2013-10-05T15:32,2013-10-02T15:10,2013-05-23T18:01
T: Fairy Jig, The
Z: Piano Box Version by Martin Fleischmann
H: Created 2013-02-19 /  Last Modified 2013-02-19
M: 9/8
L: 1/8
R: slip jig
K: Dmix
|: !2!A2 G !2!A!5!dd Add | !2!ABG !2!A!5!d!3!d !5!fef | !2!A2 G A!5!dd Add |1 !4!cAG !2!AA!1!G !3!FED :|2 !4!cAG !2!AAG !2!A!5!d!1!d ||
| !4!a2g !4!a!1!dd add | !4!abg add bag | !4!a2g add add | !5!bag !4!a2!3!g !2!f!1!e!1!d|
| !4!a2g add add | !4!abg add bag | !4!a2a !5!ba!2!f !4!g2g | !3!f!2!e!1!d !3!c!2!A!1!G !3!FED ||
